svgs/sharp-solid/rainbow.svg

<svg xmlns="http://www.w3.org/2000/svg" viewBox="0 0 640 512"><!--! Font Awesome Pro 6.6.0 by @fontawesome - https://fontawesome.com License - https://fontawesome.com/license (Commercial License) Copyright 2024 Fonticons, Inc. --><path d="M320 96C178.6 96 64 210.6 64 352l0 96 0 32L0 480l0-32 0-96C0 175.3 143.3 32 320 32s320 143.3 320 320l0 96 0 32-64 0 0-32 0-96C576 210.6 461.4 96 320 96zm0 192c-35.3 0-64 28.7-64 64l0 96 0 32-64 0 0-32 0-96c0-70.7 57.3-128 128-128s128 57.3 128 128l0 96 0 32-64 0 0-32 0-96c0-35.3-28.7-64-64-64zM160 352l0 96 0 32-64 0 0-32 0-96c0-123.7 100.3-224 224-224s224 100.3 224 224l0 96 0 32-64 0 0-32 0-96c0-88.4-71.6-160-160-160s-160 71.6-160 160z"/></svg>

<svg xmlns="http://www.w3.org/2000/svg" viewBox="0 0 640 512"><!--! Font Awesome Pro 6.4.2 by @fontawesome - https://fontawesome.com License - https://fontawesome.com/license (Commercial License) Copyright 2023 Fonticons, Inc. --><path d="M320 96C178.6 96 64 210.6 64 352v96 32H0V448 352C0 175.3 143.3 32 320 32s320 143.3 320 320v96 32H576V448 352C576 210.6 461.4 96 320 96zm0 192c-35.3 0-64 28.7-64 64v96 32H192V448 352c0-70.7 57.3-128 128-128s128 57.3 128 128v96 32H384V448 352c0-35.3-28.7-64-64-64zM160 352v96 32H96V448 352c0-123.7 100.3-224 224-224s224 100.3 224 224v96 32H480V448 352c0-88.4-71.6-160-160-160s-160 71.6-160 160z"/></svg>
